X: 17849
T: Horizonto
R: jig
M: 6/8
K: Aminor
cd|:"Am"~e3 dec|"Dm"dBc "Em"ABG|"Am"E2A ABc|"G"B2G GAB|
"F"c3 cdc|"G"BAB GAB|"F"cBA "G"BAG|1 "Em"E^FG "Am"Acd:|2 "Em"E^FG "Am"A3||
|:"Dm"F2A ABc|F2A ABc|"Am"E2A ABc|E2A ABc|"Dm"F2A ABc|
"Dm"F2A ABc|1 "Em"efe dec|dBc ABG:|2 "D7"^F2A ABc|^F2A ABc||
"Dm"f2 e2 dc|"G7"B3 Bcd|"C"e2 d2 cB|"F"A3 ABc|
"Dm"d2 c2 BA|"E"^G3 GAB|"Am"c2 d2_e2|e3 "A7"ede|
"Dm"f2 g2 f2|"G7"B3 Bcd|"C"e2 f2 e2|"F"A3 ABc|
"Dm"d2 c2 BA|"E7"^G3 GAB|"Am"cBA "G"BAG|"Em"E^FG "Am"Acd||

